core/assets/icons/sms_pay.svg

<svg width="24" height="24" viewBox="0 0 24 24" xmlns="http://www.w3.org/2000/svg"><g id="sms-pay"><path id="Vector" d="M5.763 17H20V5H4V18.385L5.763 17ZM6.455 19L2 22.5V4C2 3.73478 2.10536 3.48043 2.29289 3.29289C2.48043 3.10536 2.73478 3 3 3H21C21.2652 3 21.5196 3.10536 21.7071 3.29289C21.8946 3.48043 22 3.73478 22 4V18C22 18.2652 21.8946 18.5196 21.7071 18.7071C21.5196 18.8946 21.2652 19 21 19H6.455Z"/><g id="Frame"><path id="$" d="M11.664 15V14.3436C11.0448 14.2821 10.5408 14.0632 10.1522 13.6872C9.7635 13.3043 9.54611 12.8017 9.5 12.1795H10.6561C10.7022 12.412 10.8076 12.6034 10.9723 12.7538C11.1436 12.8974 11.3874 12.9932 11.7036 13.041V11.4615C11.3347 11.3863 10.9954 11.2803 10.6858 11.1436C10.3827 11.0068 10.1423 10.812 9.96443 10.559C9.78656 10.306 9.69763 9.97436 9.69763 9.5641C9.69763 9.01709 9.8722 8.57265 10.2213 8.23077C10.5771 7.88205 11.058 7.68034 11.664 7.62564V7H12.4842V7.6359C13.0705 7.71111 13.5283 7.93333 13.8577 8.30256C14.1937 8.66496 14.388 9.15043 14.4407 9.75897L13.2846 9.76923C13.2385 9.52991 13.1528 9.3453 13.0277 9.21538C12.9025 9.08547 12.7115 9 12.4545 8.95897V10.4564C13.087 10.5863 13.5843 10.7949 13.9466 11.0821C14.3155 11.3692 14.5 11.8068 14.5 12.3949C14.5 12.9487 14.3188 13.3932 13.9565 13.7282C13.5942 14.0564 13.1034 14.2581 12.4842 14.3333V15H11.664ZM10.8439 9.57436C10.8439 9.7453 10.9163 9.88547 11.0613 9.99487C11.2062 10.1043 11.4203 10.2 11.7036 10.2821V8.9282C11.1304 8.97607 10.8439 9.19145 10.8439 9.57436ZM13.3735 12.3128C13.3735 12.1145 13.2912 11.9641 13.1265 11.8615C12.9618 11.7521 12.7378 11.6632 12.4545 11.5949V13.0513C12.7773 13.0171 13.0112 12.9385 13.1561 12.8154C13.3011 12.6923 13.3735 12.5248 13.3735 12.3128Z"/></g></g></svg>

<svg xmlns="http://www.w3.org/2000/svg" width="24" height="24" fill="none"><path fill="#191C22" d="M5.763 17H20V5H4v13.385L5.763 17Zm.692 2L2 22.5V4a1 1 0 0 1 1-1h18a1 1 0 0 1 1 1v14a1 1 0 0 1-1 1H6.455Z"/><path fill="#191C22" d="M11.664 15v-.656c-.62-.062-1.123-.28-1.512-.657-.388-.383-.606-.885-.652-1.507h1.156c.046.232.152.423.316.574.172.143.415.24.732.287v-1.58a4.973 4.973 0 0 1-1.018-.317 1.73 1.73 0 0 1-.722-.585c-.177-.253-.266-.585-.266-.995 0-.547.174-.991.523-1.333.356-.349.837-.55 1.443-.605V7h.82v.636c.586.075 1.044.297 1.374.667.336.362.53.847.583 1.456l-1.156.01c-.046-.24-.132-.424-.257-.554-.126-.13-.317-.215-.574-.256v1.497c.633.13 1.13.339 1.493.626.369.287.553.725.553 1.313 0 .554-.181.998-.543 1.333-.363.328-.854.53-1.473.605V15h-.82Zm-.82-5.426c0 .171.072.311.217.42.145.11.36.206.643.288V8.928c-.574.048-.86.263-.86.646Zm2.53 2.739a.499.499 0 0 0-.248-.452 2.121 2.121 0 0 0-.671-.266v1.456c.322-.034.556-.113.701-.236a.625.625 0 0 0 .217-.502Z"/></svg>
